packages/foundations/assets/icons/functional/images/arrows/arrow_up_32.svg

<svg width="32" height="32" viewBox="0 0 32 32" fill="none" xmlns="http://www.w3.org/2000/svg">
<g clip-path="url(#clip0_77_485)">
<path fill-rule="evenodd" clip-rule="evenodd" d="M16.0004 26C16.5624 26 17.0004 25.563 17.0004 25V9.40604L23.2814 15.719C23.3753 15.813 23.4877 15.8865 23.6114 15.9349C23.7352 15.9833 23.8676 16.0055 24.0004 16C24.5624 16 25.0004 15.594 25.0004 15C25.0004 14.75 24.9374 14.5 24.7194 14.281L16.7194 6.28104C16.6252 6.18715 16.5126 6.11379 16.3887 6.06559C16.2648 6.0174 16.1322 5.99542 15.9994 6.00104C15.8668 5.99558 15.7346 6.01764 15.611 6.06583C15.4875 6.11402 15.3752 6.1873 15.2814 6.28104L7.28138 14.281C7.18735 14.3751 7.11384 14.4877 7.06547 14.6116C7.01711 14.7355 6.99495 14.8681 7.00038 15.001C7.00038 15.594 7.46938 16.001 8.00038 16.001C8.25038 16.001 8.50038 15.938 8.71938 15.719L15.0004 9.40604V25C15.0004 25.563 15.4374 26 16.0004 26Z" fill="#1A1C1F"/>
</g>
<defs>
<clipPath id="clip0_77_485">
<rect width="32" height="32" fill="white"/>
</clipPath>
</defs>
</svg>

<svg xmlns="http://www.w3.org/2000/svg" width="32" height="32" fill="none"><g clip-path="url(#a)"><path fill="#1A1C1F" fill-rule="evenodd" d="M16 26c.562 0 1-.437 1-1V9.406l6.281 6.313a.96.96 0 0 0 .72.281c.561 0 1-.406 1-1 0-.25-.064-.5-.282-.719l-8-8a.96.96 0 0 0-.72-.28.96.96 0 0 0-.718.28l-8 8a.96.96 0 0 0-.28.72c0 .593.468 1 1 1 .25 0 .5-.063.718-.282L15 9.406V25c0 .563.437 1 1 1" clip-rule="evenodd"/></g><defs><clipPath id="a"><path fill="#fff" d="M0 0h32v32H0z"/></clipPath></defs></svg>
